www/assets/icons/view_stream.svg

<svg xmlns="http://www.w3.org/2000/svg" width="24" height="24" viewBox="0 0 24 24" fill='currentColor'><path d="M3 17v-2c0-1.1.9-2 2-2h14c1.1 0 2 .9 2 2v2c0 1.1-.9 2-2 2H5c-1.1 0-2-.9-2-2M3 7v2c0 1.1.9 2 2 2h14c1.1 0 2-.9 2-2V7c0-1.1-.9-2-2-2H5c-1.1 0-2 .9-2 2"/></svg>

<svg width="24" height="24" viewBox="0 0 24 24" xmlns="http://www.w3.org/2000/svg" fill='currentColor'><path d="M3 17V15C3 13.9 3.9 13 5 13H19C20.1 13 21 13.9 21 15V17C21 18.1 20.1 19 19 19H5C3.9 19 3 18.1 3 17ZM3 7V9C3 10.1 3.9 11 5 11H19C20.1 11 21 10.1 21 9V7C21 5.9 20.1 5 19 5H5C3.9 5 3 5.9 3 7Z"/></svg>
